public/assets/images/icons/grey/visibility-invisible/group.svg

<svg width="16" height="16" xmlns="http://www.w3.org/2000/svg" viewBox="0 0 16 16" shape-rendering="geometricPrecision" fill="#6e6e6e"><defs><mask id="a"><rect fill="#fff" width="100%" height="100%"/><path d="M12.997.858a4.809 4.809 0 0 0-4.253 2.563 4.81 4.81 0 0 0 8.506 0A4.812 4.812 0 0 0 12.997.858z" fill="#000"/></mask></defs><path d="M12.997 1.611a3.394 3.394 0 0 0-3.003 1.81 3.397 3.397 0 0 0 6.006 0 3.398 3.398 0 0 0-3.003-1.81zm-.001 3.396a1.587 1.587 0 1 1 0-3.174 1.587 1.587 0 0 1 0 3.174z" fill="#cb1800"/><g mask="url(#a)"><path d="M14.625 6.406c-.281-.844-3.277.058-5.172.453-.673.141.552-1.619 1.235-2.89.398-.742-.031-1-2.375-1.031C5.969 2.906 1.489 4.244 1.062 7.5c-.438 3.344 2.625 6.031 7.594 5.344 5.95-.823 6.164-5.853 5.969-6.438zm-12.109.453a.922.922 0 1 1 1.845 0 .922.922 0 0 1-1.845 0zm1.375 4.004a1.03 1.03 0 1 1 0-2.062 1.03 1.03 0 0 1 0 2.062zm1.031-5.832a.75.75 0 1 1 1.5 0 .75.75 0 0 1-1.5 0zm2.328 6.998a1.174 1.174 0 1 1-.267-2.334 1.174 1.174 0 0 1 .267 2.334zm3.246-.563a1.174 1.174 0 1 1-.267-2.334 1.174 1.174 0 0 1 .267 2.334zm2.146-2.242a.803.803 0 1 1-.18-1.596.803.803 0 0 1 .18 1.596z"/></g></svg>

<?xml version="1.0"?><!DOCTYPE svg PUBLIC "-//W3C//DTD SVG 1.1//EN" "http://www.w3.org/Graphics/SVG/1.1/DTD/svg11.dtd"><svg width="16px" height="16px" xmlns="http://www.w3.org/2000/svg" viewBox="0 0 16 16" shape-rendering="geometricPrecision" fill="#6e6e6e"><defs><mask id="visibility-invisible-path"><rect fill="#fff" width="100%" height="100%"/><path d="M12.997,0.858c-1.845,0-3.446,1.039-4.253,2.563c0.808,1.523,2.408,2.562,4.253,2.562 c1.844,0,3.444-1.039,4.253-2.562C16.441,1.897,14.841,0.858,12.997,0.858z" fill="#000"/></mask></defs><g id="visibility-invisible" display="inline" fill="#cb1800"><g><g><path d="M12.997,1.611c-1.303,0-2.433,0.733-3.003,1.81c0.57,1.075,1.7,1.809,3.003,1.809c1.302,0,2.432-0.733,3.003-1.809 C15.429,2.345,14.299,1.611,12.997,1.611z M12.996,5.007c-0.876,0-1.587-0.71-1.587-1.586c0-0.877,0.711-1.588,1.587-1.588 c0.877,0,1.588,0.711,1.588,1.588C14.584,4.297,13.873,5.007,12.996,5.007z"/></g></g></g><g mask="url(#visibility-invisible-path)"><path d="M14.625,6.406c-0.281-0.844-3.277,0.058-5.172,0.453C8.78,7,10.005,5.24,10.688,3.969 c0.398-0.742-0.031-1-2.375-1.031C5.969,2.906,1.489,4.244,1.062,7.5c-0.438,3.344,2.625,6.031,7.594,5.344 C14.606,12.021,14.82,6.991,14.625,6.406z M2.516,6.859c0-0.509,0.413-0.922,0.922-0.922c0.509,0,0.922,0.413,0.922,0.922 c0,0.509-0.413,0.922-0.922,0.922C2.928,7.781,2.516,7.369,2.516,6.859z M3.891,10.863c-0.57,0-1.031-0.462-1.031-1.031 c0-0.57,0.462-1.031,1.031-1.031c0.57,0,1.031,0.462,1.031,1.031C4.922,10.401,4.46,10.863,3.891,10.863z M4.922,5.031 c0-0.414,0.336-0.75,0.75-0.75c0.414,0,0.75,0.336,0.75,0.75c0,0.414-0.336,0.75-0.75,0.75C5.258,5.781,4.922,5.445,4.922,5.031z M7.25,12.029c-0.644,0.074-1.226-0.389-1.3-1.033c-0.074-0.644,0.389-1.226,1.033-1.3c0.644-0.074,1.226,0.389,1.3,1.033 C8.356,11.374,7.894,11.955,7.25,12.029z M10.496,11.466c-0.644,0.074-1.226-0.389-1.3-1.033c-0.074-0.644,0.389-1.226,1.033-1.3 c0.644-0.074,1.226,0.389,1.3,1.033C11.602,10.81,11.14,11.392,10.496,11.466z M12.642,9.224c-0.44,0.05-0.837-0.266-0.888-0.706 c-0.05-0.44,0.266-0.837,0.706-0.888c0.44-0.05,0.838,0.266,0.888,0.706C13.398,8.776,13.082,9.173,12.642,9.224z"/></g></svg>
